X:1
T:Title
%%score { ( 1 4 ) | ( 2 3 ) }
L:1/8
M:3/4
K:Eb
V:1 treble nm="Grand Piano"
V:4 treble 
V:2 bass 
V:3 bass 
V:1
 z2 z2[Q:1/4=114] EF | G2 _G2 =G2 | E4 G2 | [GB]2 [_G=A]2 [=GB]2 | G4 GG | %5
 [A,DF]2 [G,D=E]2 [A,DF]2 | [CA]2 z2 z2 | E6- | E4 EF | G2 _G2 =G2 | E4 G2 | B2 z2 [_DGB]2 | %12
 A4 G2 | F4 B2 | c2 F2 c2 | [B,B]6- | [B,B]4 z2 | [Fd]3 [Ec] [DB]2 | [DA]3 [DG] [DF]2 | %19
 E2 [_Gc]2 [CG=A]2 | [B,GB]4 B2 | B3 A G2 | F2 G2 A2 | [EG]6- | [EG]4 z2 | A2 A2 A2 | G4 G2 | %27
 [Ec]4 [Ec]2 | [EB]4 [B,EG]2 | D2- [D=E]2 [A,DF]2 | [CA]2 z2 z2 | E6- |[M:2/4] E4 |] %33
V:2
 z2 z2 [E,G,][E,A,E] | [E,B,E]2 [E,=A,E]2 [E,B,E]2 | [E,G,]4 [E,B,E]2 | [E,E]4 [E,E]2 | %4
 [E,B,E]4 EE | B,,2 B,,2 B,,2 | z2 B,2 B,,2 | [E,G,]6- | [E,G,]4 [E,G,][E,A,E] | %9
 [E,B,E]2 [E,=A,E]2 [E,B,E]2 | [E,G,]4 [E,B,E]2 | z2[K:treble] c2[K:bass] E,2 | [E,C]4 [E,B,E]2 | %13
 [F,B,D]4 [F,B,D]2 | [F,=A,E]4 [F,A,E]2 | B,,4 C,2 | D,2 C,2 B,,2 | [B,,A,]3 [B,,A,] [B,,A,]2 | %18
 [B,,F,]3 [B,,G,] [B,,A,]2 | [E,G,]2 [E,=A,]2 E,2 | E,4[K:treble] G2 | G3 F E2 | D2 E2 F2 | %23
 E,3 G, B,2 | E,4 [E,B,E][E,B,E] | [E,CE]2 [E,CE]2 [E,CE]2 | [E,B,E]4 [E,B,E]2 | [A,,A,]4 [C,A,]2 | %28
 [E,G,]4 E,2 | z2 G,2 B,,2 | z2 B,2 B,,2 | z2 B,2 A,2 |[M:2/4] G,4 |] %33
V:3
 x6 | x6 | x6 | x6 | z2 z2 [E,B,]2 | x6 | B,,4 z2 | x6 | x6 | x6 | x6 | E,4[K:treble][K:bass] z2 | %12
 x6 | x6 | x6 | x6 | x6 | x6 | x6 | x6 | x4[K:treble] x2 | x6 | x6 | x6 | x6 | x6 | x6 | x6 | x6 | %29
 B,,4 z2 | B,,4 z2 | E,6- |[M:2/4] E,4 |] %33
V:4
 x6 | x6 | x6 | x6 | x6 | x6 | D2- [DG]2 [A,DF]2 | x6 | x6 | x6 | x6 | [_DG]4 z2 | x6 | x6 | x6 | %15
 D4 E2 | F2 E2 D2 | x6 | x6 | x6 | x6 | x6 | x6 | B,3 B, z2 | B,4 GG | x6 | x6 | x6 | x6 | %29
 [A,F]2 z2 z2 | D2- [DG]2 [A,DF]2 | G,2 D2 C2 |[M:2/4] B,4 |] %33

